X:7
T:The Boys of the Town
O:Ireland
B:Francis O'Neill:"The Dance Music of Ireland" (1907) no. 89
R:jig
Z:Transcribed by Frank Nordberg - http://www.musicaviva.com
M:6/8
L:1/8
K:G
D | GFG GBd | edB dBA | GFG GBd | edB AFD | GFG GBd |
edB gfg | edB AGA | BGG G2 :: B | def gfg | afd efB |
def gfg | afd e2d |1 def gfg | afd efg | edB AGA |
BGG G2 :|2 def gbb | faa efg | edB AGA | BGG G2 |]
